src/img/note-ico.svg

<svg width="11" height="14" viewBox="0 0 11 14" fill="none" xmlns="http://www.w3.org/2000/svg">
<path d="M10.9731 10.4155C10.9203 10.1186 10.6489 9.92307 10.367 9.97872C10.0851 10.0344 9.89933 10.3201 9.95214 10.6169C9.99135 10.8372 9.8994 10.9942 9.84113 11.0681C9.78299 11.1419 9.65378 11.2656 9.44175 11.2656H1.55823C1.34621 11.2656 1.217 11.1419 1.15885 11.0681C1.10058 10.9942 1.00863 10.8372 1.04784 10.6169C1.19516 9.7892 1.49074 9.24476 1.77659 8.71823C2.12375 8.07882 2.48273 7.41762 2.48273 6.39841V5.5781C2.48273 3.85361 3.8139 2.4316 5.45086 2.40658H5.54905C7.18048 2.43154 8.50721 3.85355 8.50721 5.57812V6.39844C8.50721 7.26586 8.77667 7.86275 9.02926 8.35415C9.12326 8.53702 9.30192 8.64082 9.48644 8.64082C9.56993 8.64082 9.65463 8.61957 9.73319 8.57478C9.98546 8.43104 10.0793 8.09914 9.94272 7.83355C9.6914 7.34459 9.54591 6.953 9.54591 6.39844V5.57812C9.54591 4.45263 9.13191 3.38961 8.38012 2.58491C7.73587 1.89528 6.90863 1.46491 6.01433 1.34613V0.546875C6.01433 0.244836 5.78182 0 5.49498 0C5.20815 0 4.97563 0.244836 4.97563 0.546875V1.34775C2.99021 1.619 1.44406 3.42292 1.44406 5.57812V6.39844C1.44406 7.12707 1.19287 7.58969 0.874874 8.1754C0.561603 8.75246 0.206497 9.4065 0.0269063 10.4155C-0.0588123 10.8972 0.0624558 11.3897 0.359628 11.7667C0.656514 12.1434 1.09342 12.3594 1.55823 12.3594H3.94696C3.94696 13.264 4.6459 14 5.505 14C6.36411 14 7.06305 13.264 7.06305 12.3594H9.44175C9.90657 12.3594 10.3435 12.1434 10.6404 11.7667C10.9375 11.3897 11.0588 10.8972 10.9731 10.4155ZM5.505 12.9062C5.21864 12.9062 4.98566 12.6609 4.98566 12.3594H6.02435C6.02435 12.6609 5.7914 12.9062 5.505 12.9062Z" fill="#424552"/>
</svg>

<svg width="11" height="14" fill="none" xmlns="http://www.w3.org/2000/svg"><path d="M10.973 10.415a.522.522 0 00-.606-.436.546.546 0 00-.415.638.56.56 0 01-.11.451.504.504 0 01-.4.198H1.558a.504.504 0 01-.4-.198.56.56 0 01-.11-.451c.147-.828.443-1.372.729-1.899.347-.64.706-1.3.706-2.32v-.82c0-1.724 1.33-3.146 2.968-3.171h.098c1.631.025 2.958 1.447 2.958 3.171v.82c0 .868.27 1.465.522 1.956a.516.516 0 00.457.287.496.496 0 00.247-.066.562.562 0 00.21-.741c-.252-.49-.397-.881-.397-1.436v-.82A4.363 4.363 0 008.38 2.585a3.94 3.94 0 00-2.366-1.239v-.8A.534.534 0 005.495 0a.534.534 0 00-.52.547v.8c-1.985.272-3.53 2.076-3.53 4.231v.82c0 .73-.252 1.192-.57 1.777-.313.577-.669 1.231-.848 2.24-.086.482.035.975.333 1.352.297.376.733.592 1.198.592h2.389c0 .905.699 1.641 1.558 1.641.86 0 1.558-.736 1.558-1.64h2.379c.465 0 .902-.217 1.198-.593a1.7 1.7 0 00.333-1.351zm-5.468 2.491a.534.534 0 01-.52-.547h1.04a.534.534 0 01-.52.547z" fill="#424552"/></svg>
